X: 2
T: The Reel Of Mullinavat
R: reel
M: 4/4
L: 1/8
K: Amix
|:ef| (3gfe fd edBA | GBAF GFED | GE E2 G3A | Be e2 (3Bcd ef |
(3gfe fd edBA | GBAF GFED | GE E2 G3A | Bgfg e3 :||
|:f| gdBd g3b | afde fa a2 | gB B2 g3b | afdf e3f |
gdBd g3b | afde fa a2 | (3bag af gfed | Bgfg e3 :||


Tune 1339	Setting 25517

